icons/desktop/20/shield-20.svg

<svg width="20" height="20" viewBox="0 0 20 20" fill="none" xmlns="http://www.w3.org/2000/svg">
<path fill-rule="evenodd" clip-rule="evenodd" d="M8.04339 1.59283C9.22283 0.805464 10.7503 0.797043 11.9311 1.60748C12.431 1.9507 12.9744 2.29823 13.561 2.63971L14.1625 2.97955L14.8061 3.31939C15.4427 3.64514 16.0597 3.92778 16.6479 4.17291C18.1429 4.79554 18.9688 6.38045 18.6762 7.95318L18.1088 10.9991C17.8678 12.3024 17.4235 13.6128 16.6684 14.7588L16.6674 14.7628C15.3669 16.7352 13.6213 18.4076 11.7221 19.5333C10.6495 20.1687 9.31405 20.1477 8.25725 19.5196C6.36865 18.396 4.6325 16.7304 3.33831 14.7696C2.57896 13.6182 2.13584 12.3015 1.89397 10.9922L1.893 10.9913L1.32366 7.89459C1.03829 6.33972 1.84076 4.73594 3.34026 4.11138C3.97939 3.84508 4.64902 3.53652 5.33831 3.1817C6.3427 2.66593 7.24603 2.12472 8.04339 1.59283ZM10.9408 3.04986C10.3618 2.65253 9.61149 2.65059 9.01507 3.04888C8.37877 3.47333 7.67916 3.90288 6.91936 4.32232L6.13909 4.73834C5.58962 5.02118 5.0516 5.27637 4.52972 5.50592L4.01311 5.72662C3.31322 6.01809 2.90026 6.79056 3.04436 7.57721L3.61468 10.6739L3.70159 11.1016C3.92387 12.0897 4.2775 13.0145 4.79925 13.8057L5.01995 14.1309C6.14807 15.7397 7.60365 17.0947 9.15179 18.0157C9.67282 18.3254 10.3223 18.3286 10.8295 18.0284C12.4898 17.0444 14.0432 15.5607 15.2045 13.7999L15.2065 13.7969C15.8007 12.8954 16.1773 11.8216 16.3881 10.6817L16.3891 10.6807L16.9555 7.63287L16.976 7.48638C17.0478 6.75785 16.6447 6.06813 15.975 5.78912L15.9741 5.78814C15.1364 5.43904 14.2452 5.01929 13.3227 4.51471C12.4459 4.03546 11.6518 3.53796 10.9408 3.04986Z" fill="black"/>
</svg>

<!-- This Source Code Form is subject to the terms of the Mozilla Public
   - License, v. 2.0. If a copy of the MPL was not distributed with this
   - file, You can obtain one at http://mozilla.org/MPL/2.0/. -->
<svg xmlns="http://www.w3.org/2000/svg" width="20" height="20" fill="context-fill" fill-opacity="context-fill-opacity" viewBox="0 0 20 20">
    <path fill-rule="evenodd" d="M8.043 1.593a3.45 3.45 0 0 1 3.888.014c.5.344 1.043.691 1.63 1.033l.601.34.644.34c.637.325 1.254.608 1.842.853a3.41 3.41 0 0 1 2.028 3.78L18.11 11c-.241 1.303-.686 2.614-1.44 3.76l-.002.004c-1.3 1.972-3.046 3.645-4.945 4.77a3.4 3.4 0 0 1-3.465-.013c-1.888-1.124-3.624-2.79-4.919-4.75-.759-1.152-1.202-2.468-1.444-3.778h-.001l-.57-3.097c-.285-1.555.518-3.16 2.017-3.784.64-.266 1.309-.574 1.998-.93a28 28 0 0 0 2.705-1.588m2.898 1.457a1.7 1.7 0 0 0-1.926-.001c-.636.424-1.336.854-2.096 1.273l-.78.416q-.825.424-1.61.768l-.516.22c-.7.292-1.113 1.065-.969 1.851l.57 3.097.088.428c.222.988.575 1.912 1.097 2.704l.22.325c1.13 1.609 2.585 2.964 4.133 3.885.52.31 1.17.313 1.678.012 1.66-.984 3.213-2.467 4.374-4.228l.002-.003c.595-.902.971-1.975 1.182-3.115l.001-.001.567-3.048.02-.147a1.655 1.655 0 0 0-1.001-1.697 28 28 0 0 1-5.034-2.74" clip-rule="evenodd" />
</svg>
